images/decoration/mode-list.svg

<svg xmlns="http://www.w3.org/2000/svg" width="16" height="14" fill="none" viewBox="0 0 16 14"><g fill="#000" clip-path="url(#a)"><path d="M2 0H0v2h2V0ZM16 0H4v2h12V0ZM2 4H0v2h2V4ZM16 4H4v2h12V4ZM2 8H0v2h2V8ZM16 8H4v2h12V8ZM2 12H0v2h2v-2ZM16 12H4v2h12v-2Z"/></g><defs><clipPath id="a"><path fill="#fff" d="M0 0h16v14H0z"/></clipPath></defs></svg>

<svg width="16" height="14" viewBox="0 0 16 14" fill="none" xmlns="http://www.w3.org/2000/svg">
<g clip-path="url(#clip0_24196_306)">
<path d="M2 0H0V2H2V0Z" fill="black"/>
<path d="M16 0H4V2H16V0Z" fill="black"/>
<path d="M2 4H0V6H2V4Z" fill="black"/>
<path d="M16 4H4V6H16V4Z" fill="black"/>
<path d="M2 8H0V10H2V8Z" fill="black"/>
<path d="M16 8H4V10H16V8Z" fill="black"/>
<path d="M2 12H0V14H2V12Z" fill="black"/>
<path d="M16 12H4V14H16V12Z" fill="black"/>
</g>
<defs>
<clipPath id="clip0_24196_306">
<rect width="16" height="14" fill="white"/>
</clipPath>
</defs>
</svg>
